X:203
T:Supstycke
T:("Ost å brö" eller "Skänklåt efter Näs Ingars", SvL Skåne nr. 49)
R:Skänklåt
B:Svenska Låtar Skåne
O:Dönaberga, Skåne
S:efter Inga Persdotter
Z:Patrik Månsson, 24/9 2008
M:2/4
L:1/8
K:G
"G" BD DB | BD DG | "am" A2 "D7" AF | D2 FG | A2 AA | d2 dd | "G" B2 GG | G2 "G7" BB |
"C" c2 cc | c2 Ac | "G" B2 BB | B2 GB | "D7" A2 AA | A2 FA | "G" AG GG | G2 z2 |
(:musicend:)

(:music:)
